app/assets/images/Contenido/Camión.svg

<svg fill="none" height="76" viewBox="0 0 87 76" width="87" xmlns="http://www.w3.org/2000/svg"><path d="m74.6025 17.5039c-.7591-1.3228-1.8491-2.4227-3.1617-3.1903-1.3126-.7677-2.802-1.1765-4.3203-1.1857h-10.5705v-8.75194c0-1.16057-.4583-2.27362-1.2741-3.09427-.8158-.820651-1.9222-1.28169-3.0759-1.28169h-43.5c-2.30738 0-4.52026.922075-6.15183 2.56338-1.631566 1.6413-2.54817 3.86739-2.54817 6.18855v43.75967c.00156488 1.5347.404301 3.0421 1.16781 4.3708.7635 1.3288 1.86093 2.4322 3.18219 3.1996-.15575 4.062 1.29894 8.0199 4.04405 11.003 2.74515 2.983 6.55575 4.7469 10.59365 4.9036 4.038.1567 7.9724-1.3067 10.9378-4.0682 2.9653-2.7615 4.7188-6.5949 4.8745-10.6569h13.485c.481 3.6614 2.2683 7.0221 5.0292 9.4565 2.7608 2.4344 6.307 3.7766 9.9783 3.7766s7.2175-1.3422 9.9783-3.7766c2.7609-2.4344 4.5482-5.7951 5.0292-9.4565 2.3074 0 4.5203-.9221 6.1518-2.5634 1.6316-1.6413 2.5482-3.8674 2.5482-6.1885v-13.1279c-.0068-.7984-.2165-1.5817-.609-2.2755zm-18.0525 4.3759h10.5705l7.83 13.1279h-18.4005zm-36.975 43.7596c-1.2905 0-2.5521-.3849-3.6251-1.1062-1.073-.7212-1.9094-1.7464-2.4032-2.9458-.4939-1.1994-.6231-2.5192-.3713-3.7925.2517-1.2732.8732-2.4428 1.7857-3.3608.9126-.918 2.0752-1.5431 3.3409-1.7964 1.2658-.2533 2.5777-.1233 3.77.3735s2.2114 1.3381 2.9283 2.4176c.717 1.0794 1.0997 2.3485 1.0997 3.6467 0 1.7409-.6875 3.4104-1.9111 4.6414-1.2237 1.231-2.8834 1.9225-4.6139 1.9225zm43.5 0c-1.2905 0-2.5521-.3849-3.6251-1.1062-1.073-.7212-1.9094-1.7464-2.4032-2.9458-.4939-1.1994-.6231-2.5192-.3713-3.7925.2517-1.2732.8732-2.4428 1.7857-3.3608.9126-.918 2.0752-1.5431 3.3409-1.7964 1.2658-.2533 2.5777-.1233 3.77.3735s2.2114 1.3381 2.9283 2.4176c.717 1.0794 1.0997 2.3485 1.0997 3.6467 0 1.7409-.6875 3.4104-1.9111 4.6414-1.2237 1.231-2.8834 1.9225-4.6139 1.9225z" fill="#17ab5b"/></svg>

<svg width="87" height="76" viewBox="0 0 87 76" fill="none" xmlns="http://www.w3.org/2000/svg">
<path d="M74.6025 17.5039C73.8434 16.1811 72.7534 15.0812 71.4408 14.3136C70.1282 13.5459 68.6388 13.1371 67.1205 13.1279H56.55V4.37596C56.55 3.21539 56.0917 2.10234 55.2759 1.28169C54.4601 0.461039 53.3537 0 52.2 0H8.7C6.39262 0 4.17974 0.922075 2.54817 2.56338C0.916604 4.20468 0 6.43077 0 8.75193V52.5116C0.00156488 54.0463 0.404301 55.5537 1.16781 56.8824C1.93131 58.2112 3.02874 59.3146 4.35 60.082C4.19425 64.144 5.64894 68.1019 8.39405 71.085C11.1392 74.068 14.9498 75.8319 18.9877 75.9886C23.0257 76.1453 26.9601 74.6819 29.9255 71.9204C32.8908 69.1589 34.6443 65.3255 34.8 61.2635H48.285C48.766 64.9249 50.5533 68.2856 53.3142 70.72C56.075 73.1544 59.6212 74.4966 63.2925 74.4966C66.9638 74.4966 70.51 73.1544 73.2708 70.72C76.0317 68.2856 77.819 64.9249 78.3 61.2635C80.6074 61.2635 82.8203 60.3414 84.4518 58.7001C86.0834 57.0588 87 54.8327 87 52.5116V39.3837C86.9932 38.5853 86.7835 37.802 86.391 37.1082L74.6025 17.5039ZM56.55 21.8798H67.1205L74.9505 35.0077H56.55V21.8798ZM19.575 65.6394C18.2845 65.6394 17.0229 65.2545 15.9499 64.5332C14.8769 63.812 14.0405 62.7868 13.5467 61.5874C13.0528 60.388 12.9236 59.0682 13.1754 57.7949C13.4271 56.5217 14.0486 55.3521 14.9611 54.4341C15.8737 53.5161 17.0363 52.891 18.302 52.6377C19.5678 52.3844 20.8797 52.5144 22.072 53.0112C23.2643 53.508 24.2834 54.3493 25.0003 55.4288C25.7173 56.5082 26.1 57.7773 26.1 59.0755C26.1 60.8164 25.4125 62.4859 24.1889 63.7169C22.9652 64.9479 21.3055 65.6394 19.575 65.6394ZM63.075 65.6394C61.7845 65.6394 60.5229 65.2545 59.4499 64.5332C58.3769 63.812 57.5405 62.7868 57.0467 61.5874C56.5528 60.388 56.4236 59.0682 56.6754 57.7949C56.9271 56.5217 57.5486 55.3521 58.4611 54.4341C59.3737 53.5161 60.5363 52.891 61.802 52.6377C63.0678 52.3844 64.3797 52.5144 65.572 53.0112C66.7643 53.508 67.7834 54.3493 68.5003 55.4288C69.2173 56.5082 69.6 57.7773 69.6 59.0755C69.6 60.8164 68.9125 62.4859 67.6889 63.7169C66.4652 64.9479 64.8055 65.6394 63.075 65.6394Z" fill="#17AB5B"/>
</svg>
